src/lib/packages/icons/src/assets/filled/cloud-times.svg

<svg width="24" height="24" viewBox="0 0 24 24" fill="none" xmlns="http://www.w3.org/2000/svg">
<path d="M16 9C15.67 9 15.35 9.03003 15.03 9.09003C14.692 8.54103 14.274 8.04597 13.791 7.62097C12.648 6.61297 11.145 6 9.49902 6C5.90902 6 2.99902 8.91 2.99902 12.5C2.99902 16.09 5.90902 19 9.49902 19H15.999C18.759 19 20.999 16.76 20.999 14C20.999 11.24 18.76 9 16 9ZM14.03 14.47C14.323 14.763 14.323 15.238 14.03 15.531C13.884 15.677 13.692 15.751 13.5 15.751C13.308 15.751 13.116 15.678 12.97 15.531L12 14.561L11.03 15.531C10.884 15.677 10.692 15.751 10.5 15.751C10.308 15.751 10.116 15.678 9.96997 15.531C9.67697 15.238 9.67697 14.763 9.96997 14.47L10.9399 13.5L9.96997 12.53C9.67697 12.237 9.67697 11.762 9.96997 11.469C10.263 11.176 10.738 11.176 11.031 11.469L12.001 12.439L12.9709 11.469C13.2639 11.176 13.739 11.176 14.032 11.469C14.325 11.762 14.325 12.237 14.032 12.53L13.062 13.5L14.03 14.47Z" fill="currentColor"/>
</svg>

<svg xmlns="http://www.w3.org/2000/svg" width="24" height="24" fill="none"><path fill="currentColor" d="M16 9c-.33 0-.65.03-.97.09a6.488 6.488 0 0 0-1.239-1.469A6.5 6.5 0 1 0 9.499 19h6.5A5.001 5.001 0 0 0 16 9Zm-1.97 5.47a.75.75 0 0 1-1.06 1.061l-.97-.97-.97.97a.748.748 0 0 1-1.06 0 .75.75 0 0 1 0-1.061l.97-.97-.97-.97a.75.75 0 1 1 1.061-1.061l.97.97.97-.97a.75.75 0 0 1 1.061 1.061l-.97.97.968.97Z"/></svg>
